!!!!SEGMENT: Fsc3001-Lieto_non_hebbi_mai.krn
!!!id: Fsc3001
!!!AGN: Madrigal
!!!SCT: Seay (1978)
!!!voices: 3
!!!COM: Costanzo Festa
!!!OTL: Lieto non hebbi mai 
**kern	**kern	**kern
*part3	*part2	*part1
*staff3	*staff2	*staff1
*I"Bassus	*I"Tenor	*I"Superius
*I'B	*I'T	*I'S
*clefF4	*clefGv2	*clefG2
*k[]	*k[]	*k[]
*C:	*C:	*C:
*M2/1	*M2/1	*M2/1
*met(C|)	*met(C|)	*met(C|)
=1	=1	=1
1.D	1.d	0a
2D	2d	.
=2	=2	=2
1D	1d	1a
[1A	1c	1a
=3	=3	=3
2A]	1c	1.a
2G	.	.
2F	2c	.
2E	2c	2g
=4	=4	=4
2D	1.d	2f
2C	.	2e
2BB	.	2d
2AA	2c	[2a
=5	=5	=5
1E	2B	4a]
.	.	4g
.	2c	1g
1D	1A	.
.	.	2f#i
=6	=6	=6
1GG	2.G	1g
.	4A	.
1G	4B	1g
.	4c	.
.	[2d	.
=7	=7	=7
2F	4d]	1r
.	4c	.
2F	2A	.
2E	2B	1g
2E	2c	.
=8	=8	=8
1D	2A	2f
.	1d	2f
1A	.	1e
.	2c	.
=9	=9	=9
2F	2d	1d
2G	2.B	.
2E	.	1g
.	4G	.
2C	[2c	.
=10	=10	=10
1D	2c]	1f
.	2B	.
1C	1c	[1e
=11	=11	=11
2r	2r	1e]
2C	2c	.
2AA	2c	2r
2AA	2c	2e
=12	=12	=12
2D	2d	2f
2D	2d	2f
1C	2e	2g
.	[2c	2g
=13	=13	=13
1F	2c]	2.a
.	4B	.
.	4A	8gL
.	.	8fJ
2E	2B	2g
2F	2A	[2a
=14	=14	=14
2D	1B	2a]
2E	.	2g
1F	2r	1a
.	2A	.
=15	=15	=15
1E	2B	2r
.	2c	2e
2r	2d	2f
2E	2G	2g
=16	=16	=16
2F	2r	2a
2G	2B	2d
2A	2c	2r
2D	4A	2a
.	4B	.
=17	=17	=17
2r	4c	2a
.	4d	.
2C	2.e	2g
2.D	.	2.f
.	4d	.
.	2d	.
4C	.	8eL
.	.	8dJ
=18	=18	=18
4AA	1.e	2c
4BB	.	.
4C	.	2cc
4D	.	.
4E	.	2cc
4F	.	.
4G	4d	[2b
4E	4e	.
=19	=19	=19
2F	4d	4b]
.	4c	4a
2F	4B	1a
.	4A	.
1E	1B	.
.	.	2g#i
=20	=20	=20
0AA;	0A;	0a;
=21||	=21||	=21||
1.A	1.c	0e
4G	4B	.
4F	4A	.
=22	=22	=22
2G	2B	1e
2A	2c	.
2D	2d	1f
2F	2A	.
=23	=23	=23
2E	2B	1g
2C	2c	.
2.G	2B	1g
.	2G	.
8FL	.	.
8EJ	.	.
=24	=24	=24
0D	2.d	0f
.	4c	.
.	2A	.
.	2B	.
=25	=25	=25
2r	0c	1e
2A	.	.
2.A	.	2r
.	.	2a
4G	.	.
=26	=26	=26
4F	2r	2.a
4E	.	.
1D	2A	.
.	.	4g
.	2A	2f
[2G	[2B-X	2e
=27	=27	=27
4G]	2B-]	1d
4F	.	.
4E	2.A	.
4D	.	.
2E	.	1g
.	8GL	.
.	8FJ	.
2E	2G	.
=28	=28	=28
4D	2A	0f
4E	.	.
4F	4D	.
4G	4E	.
2A	4F	.
.	4G	.
[2F	4A	.
.	4B	.
=29	=29	=29
4F]	4c	1r
4E	4G	.
4D	1c	.
4C	.	.
2D	.	1d
2D	2B	.
=30	=30	=30
1C	2c	1e
.	4C	.
.	4D	.
1AA	4E	1c
.	4F	.
.	4G	.
.	4A	.
=31	=31	=31
2GG	4B	1d
.	4c	.
2GG	4d	.
.	4B	.
1C	4c	1e
.	4B	.
.	4G	.
.	4A	.
=32	=32	=32
1D	4B	1.d
.	4A	.
.	4G	.
.	4F	.
1BB	4G	.
.	2A	.
.	.	4c
.	4G#i	4B
=33	=33	=33
1AA	0A	1c
2r	.	2r
2A	.	2e
=34	=34	=34
2.c	1A	2.e
4B	.	4d
2A	2r	2c
2G	2E	2B
=35	=35	=35
2A	2.F	1A
2.D	.	.
.	4G	.
.	2A	1d
4C	.	.
4D	2B-i	.
4E	.	.
=36	=36	=36
2F	2A	1r
2G	2.d	.
2E	.	2r
.	8c#iL	.
.	8BJ	.
2E	2c#i	2g
=37	=37	=37
2D	1d	2f
2G	.	2d
2F	2r	2.f
2D	2d	.
.	.	4g
=38	=38	=38
2.F	2c	2a
.	2A	1a
4G	.	.
1A	2.c	.
.	.	4g
.	4d	4f
=39	=39	=39
2E	2e	2g
2G	2.B	1e
1F	.	.
.	8AL	.
.	8GJ	.
.	2A	2d
=40	=40	=40
0E	2B	1e
.	2c	.
.	2B	1r
.	2G	.
=41	=41	=41
1.D	0A	0f
2E	.	.
=42	=42	=42
1F	1A	1f
1G	2.B	1d
.	4A	.
=43	=43	=43
1E	2B	1e
.	2.c	.
1C	.	1e
.	4B	.
.	2G	.
=44	=44	=44
0D	2.d	2.f
.	4c	4e
.	2A	4f
.	.	4d
.	[2d	[2a
=45	=45	=45
1D	4d]	4a]
.	4c	4g
.	4B	1g
.	8AL	.
.	8GJ	.
2r	1A	.
2D	.	2f#i
=46	=46	=46
2E	2r	1g
2E	2G	.
1AA	2A	1r
.	2A	.
=47	=47	=47
2BB	2D	2r
2C	1G	2g
1AA	.	2a
.	2F	2a
=48	=48	=48
2GG	2G	2.d
2G	2B-i	.
.	.	4e
2F	2A	2f
2D	[2d	2f
=49	=49	=49
1E	2d]	2.g
.	2c	.
.	.	4e
2D	2d	4f
.	.	4g
[2F	4A	[2a
.	4B	.
=50	=50	=50
4F]	4c	2a]
4E	4d	.
2C	1e	2g
2.D	.	2.f
.	2d	.
4C	.	8eL
.	.	8dJ
=51	=51	=51
4AA	0e	2c
4BB	.	.
4C	.	2cc
4D	.	.
4E	.	2cc
4F	.	.
4G	.	[2b
4E	.	.
=52	=52	=52
1F	1A	4b]
.	.	4a
.	.	1a
1E	1B	.
.	.	2g#i
=53	=53	=53
00AAl	00Al	00al
==	==	==
*-	*-	*-
!!!system-decoration: [*]
!!!RDF**kern: i = editorial accidental
!!!RDF**kern: l = terminal long
!!!ENC: Benjamin Ory
!!!END: 2021/9/24
!!!EED: Benjamin Ory
!!!EEV: 2021/09/24
!!!YEC: Copyright 2021 Benjamin Ory, All Rights Reserved
!!!ONB: Translated from MusicXML on 2021/09/24
